X:1
T:Nearer My God to Thee
T:Nearer My God to Thee
T:Bethany
T:Lowell Mason, 1856
C:Bethany
Z:Lowell Mason, 1856
%%score 1 2 3 4
L:1/8
Q:1/4=80
M:4/4
K:F
V:1 treble transpose=-2 nm="B♭ Trumpet" snm="B♭ Tpt."
V:2 treble transpose=-2 nm="B♭ Trumpet" snm="B♭ Tpt."
V:3 bass nm="Euphonium" snm="Euph."
V:4 bass nm="Tuba" snm="Tba."
V:1
[K:G]!mf! B4 A2 G2 | G3 E E4 | D4 G2 B2 | A8 || B4 A2 G2 | G3 E E4 |!>(! (D2 G2) F2 A2!>)! | %7
!mp! G8 || d4 e2 d2 | d3 B d4 | d4 e2 d2 | d2 B2!<(! !breath!A4!<)! ||!mf! B4 A2 G2 | G3 E E4 | %14
!>(! (D2 G2) F2 A2!>)! | G8 |] %16
V:2
[K:G]!mf! D4 C2 B,2 | E3 C C4 | D4 D2 D2 | D8 || D4 C2 B,2 | E3 C C4 |!>(! (B,2 D2) D2 D2!>)! | %7
!mp! D8 || G4 G2 G2 | G3 G G4 | G4 G2 G2 | A2 D2!<(! !breath!D4!<)! ||!mf! D4 D2 D2 | E3 C C4 | %14
!>(! (B,2 D2) D2 D2!>)! | D8 |] %16
V:3
!mf! F,4 E,2 F,2 | B,3 F, F,4 | A,4 F,2 F,2 | E,8 || F,4 E,2 F,2 | B,3 F, F,4 | %6
!>(! (F,2 A,2) G,2 B,2!>)! |!mp! A,8 || A,4 B,2 A,2 | A,3 C A,4 | A,4 B,2 A,2 | %11
 G,2 F,2!<(! !breath!E,4!<)! ||!mf! F,4 E,2 F,2 | B,3 F, F,4 |!>(! (F,2 A,2) G,2 B,2!>)! | A,8 |] %16
V:4
!mf! F,4 C,2 D,2 | B,,3 B,, B,,4 | F,,4 A,,2 F,,2 | C,8 || F,4 C,2 D,2 | B,,3 B,, B,,4 | %6
!>(! C,4 C,2 C,2!>)! |!mp! F,8 || F,4 F,2 F,2 | F,3 F, F,4 | F,4 F,2 F,2 | %11
 E,2 F,2!<(! !breath!C,4!<)! ||!mf! F,,4 G,,2 A,,2 | B,,3 B,, B,,4 |!>(! C,4 C,2 C,2!>)! | F,,8 |] %16

